public/static/icons/editor/unlink.svg

<svg height="24" viewBox="0 0 24 24" width="24" xmlns="http://www.w3.org/2000/svg"><path d="m16.9992979.5c-1.1524994 0-2.3053652.43919428-3.18296 1.31651879l-2.50027 2.50021236c-1.2461346 1.24610584-1.6022981 3.04553919-1.0782415 4.61367238l1.7960922-1.7960508c.0750081-.51354362.3018219-1.00890546.6963645-1.40343897l2.50027-2.50021235c.4875527-.48704137 1.1286757-.7315069 1.7687448-.7315069s1.2807168.24396549 1.7677694.7315069c.9746053.97508281.9746053 2.56087303 0 3.5354558l-2.50027 2.50021236c-.3945426.3945335-.8894158.62084197-1.4034713.69634838l-1.7970691 1.79702765c.4640501.1550131.9472433.2373254 1.4317956.2373254 1.1526245 0 2.3053653-.4389443 3.18296-1.3165188l2.5002701-2.50021238c1.7551895-1.75464903 1.7546895-4.609172 0-6.36382103-.8775948-.87707449-2.0294852-1.31651879-3.1819847-1.31651879zm-3.0198566 6.48883165c-.2598261.00774193-.5064327.11632965-.6875743.30275972l-6.00064808 6.00050963c-.2612695.2508382-.36651487.6233204-.2751489.973792.09136597.3504717.3650685.6241679.71554966.7155332.35047971.0913639.72297052-.0138791.97381448-.2751426l6.00064804-6.00050961c.2957921-.2875157.3847305-.72712717.2239588-1.10700682-.1607717-.37987819-.5382703-.62209499-.9505983-.60993552zm-6.25653622 3.02174215c-1.22617167-.06239633-2.47164194.3711957-3.40661792 1.3057751l-2.50027003 2.5002124c-1.75468951 1.754649-1.75468951 4.6101488 0 6.3647978.87759478.8770745 2.02986021 1.315542 3.18198464 1.315542s2.30438987-.4389443 3.18198465-1.3165188l2.50026998-2.5002124c1.2461346-1.2461058 1.6032749-3.0455392 1.0792183-4.6136723l-1.79706903 1.7970276c-.07500811.5135436-.30182185 1.0089054-.69636446 1.403439l-2.50027003 2.5002123c-.97460525.9750828-2.5609321.9750828-3.53553736 0s-.97460526-2.560873 0-3.5354558l2.50027003-2.5002123c.39454261-.3945336.88991588-.6218189 1.40347134-.6973253l1.79609224-1.7960508c-.39204234-.1310111-.79843798-.2067603-1.2071609-.2275585zm10.77655482 3.4885768c-2.5687774 0-4.7007111 1.9625809-4.9712403 4.4622932-.0190021.176515-.0292997.3566161-.0292997.5381315 0 2.7502336 2.250243 5.0004247 5.00054 5.0004247 2.7502971 0 5.0005401-2.2501911 5.0005401-5.0004247s-2.250243-5.0004247-5.0005401-5.0004247zm-1.750189 2.7502336c.1500162 0 .249636.0503952.3496468.1504037l1.4005422 1.3995331 1.4005423-1.3995331c.2000216-.200017.4992734-.200017.699295 0s.2000216.4992619 0 .6992789l-1.3995654 1.4005099 1.3995654 1.40051c.2000216.200017.2000216.4992619 0 .6992789-.1000108.1000084-.249636.1504037-.3496468.1504037s-.249636-.0503953-.3496468-.1504037l-1.4005422-1.3995332-1.4005423 1.3995332c-.1000108.1000084-.2496359.1504037-.3496467.1504037s-.249636-.0503953-.3496468-.1504037c-.2000216-.200017-.2000216-.4992619 0-.6992789l1.3995654-1.40051-1.3995654-1.4005099c-.2000216-.200017-.2000216-.4992619 0-.6992789.1000108-.1000085.1996306-.1504037.3496468-.1504037z" fill-rule="evenodd"/></svg>

<svg xmlns="http://www.w3.org/2000/svg" width="24" height="24" viewBox="0 0 24 24">
  <path fill-rule="evenodd" d="M16.9992979,0.5 C15.8467985,0.5 14.6939327,0.939194279 13.8163379,1.81651879 L11.3160679,4.31673115 C10.0699333,5.56283699 9.7137698,7.36227034 10.2378264,8.93040353 L12.0339186,7.13435273 C12.1089267,6.62080911 12.3357405,6.12544727 12.7302831,5.73091376 L15.2305531,3.23070141 C15.7181058,2.74366004 16.3592288,2.49919451 16.9992979,2.49919451 C17.639367,2.49919451 18.2800147,2.74316 18.7670673,3.23070141 C19.7416726,4.20578422 19.7416726,5.79157444 18.7670673,6.76615721 L16.2667973,9.26636957 C15.8722547,9.66090307 15.3773815,9.88721154 14.863326,9.96271795 L13.0662569,11.7597456 C13.530307,11.9147587 14.0135002,11.997071 14.4980525,11.997071 C15.650677,11.997071 16.8034178,11.5581267 17.6810125,10.6805522 L20.1812826,8.18033982 C21.9364721,6.42569079 21.9359721,3.57116782 20.1812826,1.81651879 C19.3036878,0.939444301 18.1517974,0.5 16.9992979,0.5 L16.9992979,0.5 Z M13.9794413,6.98883165 C13.7196152,6.99657358 13.4730086,7.1051613 13.291867,7.29159137 L7.29121892,13.292101 C7.02994942,13.5429392 6.92470405,13.9154214 7.01607002,14.265893 C7.10743599,14.6163647 7.38113852,14.8900609 7.73161968,14.9814262 C8.08209939,15.0727901 8.4545902,14.9675471 8.70543416,14.7062836 L14.7060822,8.70577399 C15.0018743,8.41825829 15.0908127,7.97864682 14.930041,7.59876717 C14.7692693,7.21888898 14.3917707,6.97667218 13.9794427,6.98883165 L13.9794413,6.98883165 Z M7.72290508,10.0105738 C6.49673341,9.94817747 5.25126314,10.3817695 4.31628716,11.3163489 L1.81601713,13.8165613 C0.0613276232,15.5712103 0.0613276232,18.4267101 1.81601713,20.1813591 C2.69361191,21.0584336 3.84587734,21.4969011 4.99800177,21.4969011 C6.1501262,21.4969011 7.30239164,21.0579568 8.17998642,20.1803823 L10.6802564,17.6801699 C11.926391,16.4340641 12.2835313,14.6346307 11.7594747,13.0664976 L9.96240567,14.8635252 C9.88739756,15.3770688 9.66058382,15.8724306 9.26604121,16.2669642 L6.76577118,18.7671765 C5.79116593,19.7422593 4.20483908,19.7422593 3.23023382,18.7671765 C2.25562856,17.7920937 2.25562856,16.2063035 3.23023382,15.2317207 L5.73050385,12.7315084 C6.12504646,12.3369748 6.62041973,12.1096895 7.13397519,12.0341831 L8.93006743,10.2381323 C8.53802509,10.1071212 8.13162945,10.031372 7.72290653,10.0105738 L7.72290508,10.0105738 Z M18.4994599,13.4991506 C15.9306825,13.4991506 13.7987488,15.4617315 13.5282196,17.9614438 C13.5092175,18.1379588 13.4989199,18.3180599 13.4989199,18.4995753 C13.4989199,21.2498089 15.7491629,23.5 18.4994599,23.5 C21.249757,23.5 23.5,21.2498089 23.5,18.4995753 C23.5,15.7493417 21.249757,13.4991506 18.4994599,13.4991506 L18.4994599,13.4991506 Z M16.7492709,16.2493842 C16.8992871,16.2493842 16.9989069,16.2997794 17.0989177,16.3997879 L18.4994599,17.799321 L19.9000022,16.3997879 C20.1000238,16.1997709 20.3992756,16.1997709 20.5992972,16.3997879 C20.7993188,16.5998049 20.7993188,16.8990498 20.5992972,17.0990668 L19.1997318,18.4995767 L20.5992972,19.9000867 C20.7993188,20.1001037 20.7993188,20.3993486 20.5992972,20.5993656 C20.4992864,20.699374 20.3496612,20.7497693 20.2496504,20.7497693 C20.1496396,20.7497693 20.0000144,20.699374 19.9000036,20.5993656 L18.4994614,19.1998324 L17.0989191,20.5993656 C16.9989083,20.699374 16.8492832,20.7497693 16.7492724,20.7497693 C16.6492616,20.7497693 16.4996364,20.699374 16.3996256,20.5993656 C16.199604,20.3993486 16.199604,20.1001037 16.3996256,19.9000867 L17.799191,18.4995767 L16.3996256,17.0990668 C16.199604,16.8990498 16.199604,16.5998049 16.3996256,16.3997879 C16.4996364,16.2997794 16.5992562,16.2493842 16.7492724,16.2493842 L16.7492709,16.2493842 Z"/>
</svg>
